X:12
T:Wassail 3
M:6/8
L:1/8
K:Bmajor
B|"B"B2cd2c|"B"B2cd2c|"B"B2ff2f|"F7"f3-f2|f|"E"g2g"B"f2d|"B"f3e2d|"cm"c2Bc2d|"F7"e3d3/2e3/2|"B"f2"E"bg|"B"f2"F7"de|"B"ff"E"bg|"B"f2"F7"de|"B"f2"Gm"gd|"cm"ec"F7"BA|"B"B3/2c/2dB|"E"e2"F7"de|"B"f2"Gm"gd|"cm"ec"F7"BA|"B"B4-|"B"B3|]

